X: 1319
T: The Minister's Daughter
R:Reel
N:Collected by Cronin
B:O'Neill's 1319
Z:Transcribed by Trish O'Neil
M:C|
L:1/8
K:A
ed|cAce cAAe|cAcef2(ea)|1AceA cAec Bcdef2:|2afge fdec|Bfed cAA2||
a2af ecAc1aecfe2(3efg|a2af ecAc|Bcdef2(3efg|
abaf ecAc|aecfe2(3efg|afge fdec|Bfed cAA2|]


